X:467
T:
R:vals
S:Efter Henrik Dillander i Alva.
O:Gotland, Alva
M:3/4
L:1/8
K:G
B2 c2 e2|d4 B2|A2 f2 a2|(gB)(dg) b2|B2 c2 e2|d4 B2|A2 f2 a2|g6::c'4 (ba)|(ag)(gB)(dg)|
(gf)(fd)(fa)|(fB)(dg) b2|c'4 (ba)|(ag)(gB)(dg)|(gf)(fd)(fa)|g6:|

